X: 22835
T: Lark In The Blue Summer Sky, The
R: jig
M: 6/8
K: Amixolydian
|:cAA EAA|cec dcd|~e3 efg|BGB ded|
cAA EAA|cec dcd|~e3 efg|1 BAA Aed:|2 BAA A3||
|:eaa aba|gef ~g3|age dcd|ecA Ged|
cAA EAA|cec dcd|~e3 efg|1 BAA A3:|2 BAA Aed||

